icons/radar-line.svg

<svg xmlns="http://www.w3.org/2000/svg" width="24" height="24" fill="none"><g clip-path="url(#a)"><g><path fill="#121212" d="M12.506 3.62301L11.483 5.39501C8.57299 4.51601 5.96899 4.94501 5.07199 6.50001C3.89399 8.54001 5.86199 12.152 9.74999 14.397C13.638 16.642 17.75 16.539 18.928 14.5C19.826 12.945 18.895 10.476 16.679 8.39501L17.702 6.62301C20.784 9.33201 22.165 12.893 20.66 15.5C18.8 18.722 13.471 18.855 8.74999 16.13C4.02899 13.402 1.47999 8.72101 3.33999 5.50001C4.84499 2.89301 8.61999 2.30801 12.506 3.62301ZM15.884 1.77301L17.616 2.77301L12.616 11.433L10.884 10.433L15.884 1.77301ZM6.73199 20H17V22H5.01699C4.83849 22.0036 4.66232 21.959 4.50696 21.871C4.35161 21.7831 4.22278 21.6549 4.13399 21.5C4.04671 21.3478 4.00079 21.1754 4.00079 21C4.00079 20.8246 4.04671 20.6522 4.13399 20.5L6.38399 16.603L8.11599 17.603L6.73199 20Z"/></g></g><defs><clipPath id="a"><rect width="24" height="24" fill="white"/></clipPath></defs></svg>

<svg width="24" height="24" fill="none" xmlns="http://www.w3.org/2000/svg"><g clip-path="url(#a)"><path d="m12.506 3.623-1.023 1.772c-2.91-.879-5.514-.45-6.411 1.105-1.178 2.04.79 5.652 4.678 7.897s8 2.142 9.178.103c.898-1.555-.033-4.024-2.249-6.105l1.023-1.772c3.082 2.709 4.463 6.27 2.958 8.877-1.86 3.222-7.189 3.355-11.91.63C4.029 13.402 1.48 8.721 3.34 5.5c1.505-2.607 5.28-3.192 9.166-1.877Zm3.378-1.85 1.732 1-5 8.66-1.732-1 5-8.66ZM6.732 20H17v2H5.017a.994.994 0 0 1-1.016-1c0-.175.046-.348.133-.5l2.25-3.897 1.732 1L6.732 20Z" /></g><defs><clipPath id="a"><path fill="#fff" d="M0 0h24v24H0z"/></clipPath></defs></svg>
